docs/svgs/room-storage.svg

<svg viewBox="0 0 24 24" height="24px" width="24px" fill="#44739e" xmlns="http://www.w3.org/2000/svg"><title>hue:room-storage</title><desc>Source: https://github.com/arallsopp/hass-hue-icons</desc><path d="M 3.75 19.5 L 3.75 8.25 L 20.25 8.25 L 20.25 19.5 C 20.25 19.914062 19.914062 20.25 19.5 20.25 L 4.5 20.25 C 4.085938 20.25 3.75 19.914062 3.75 19.5 Z M 9 11.25 C 8.585938 11.25 8.25 11.585938 8.25 12 C 8.25 12.414062 8.585938 12.75 9 12.75 L 15 12.75 C 15.414062 12.75 15.75 12.414062 15.75 12 C 15.75 11.585938 15.414062 11.25 15 11.25 Z M 19.5 3.75 C 19.914062 3.75 20.25 4.085938 20.25 4.5 L 20.25 6.75 L 3.75 6.75 L 3.75 4.5 C 3.75 4.085938 4.085938 3.75 4.5 3.75 Z M 19.5 3.75 "/></svg>

<svg viewBox="0 0 24 24" height="24px" width="24px" fill="#44739e" xmlns="http://www.w3.org/2000/svg"><title>hue:room-storage</title><desc>Source: https://github.com/arallsopp/hass-hue-icons</desc><path d="M3.75,19.5V8.25h16.5V19.5c0,0.41-0.34,0.75-0.75,0.75h-15C4.09,20.25,3.75,19.91,3.75,19.5z M9,11.25 c-0.41,0-0.75,0.34-0.75,0.75S8.59,12.75,9,12.75h6c0.41,0,0.75-0.34,0.75-0.75s-0.34-0.75-0.75-0.75H9z M19.5,3.75 c0.41,0,0.75,0.34,0.75,0.75v2.25H3.75V4.5c0-0.41,0.34-0.75,0.75-0.75H19.5z"/></svg>
